Newaita-dark/actions/32/format-border-set-top.svg

<svg height="32" viewBox="0 0 32 32" width="32" xmlns="http://www.w3.org/2000/svg"><g fill="#e0e0e0"><path d="m5.292969 29.355469h21.167969c1.460937 0 2.644531-1.183594 2.644531-2.644531v-21.167969c0-1.460938-1.183594-2.648438-2.644531-2.648438h-21.167969c-1.460938 0-2.648438 1.1875-2.648438 2.648438v21.167969c0 1.460937 1.1875 2.644531 2.648438 2.644531zm0 0" fill-opacity=".392157"/><path d="m2.644531 16.789062h26.460938v-1.324218h-26.460938zm0 0"/><path d="m16.613281 29.355469v-26.460938h-1.398437v26.460938zm0 0"/></g><path d="m2.644531 5.542969c0-1.464844 1.183594-2.648438 2.648438-2.648438h21.167969c1.464843 0 2.644531 1.183594 2.644531 2.648438zm0 0" fill="#7e57c2"/></svg>

<svg xmlns="http://www.w3.org/2000/svg" xmlns:xlink="http://www.w3.org/1999/xlink" width="32px" height="32px" viewBox="0 0 32 32" version="1.1">
<g id="surface1">
<path style=" stroke:none;fill-rule:nonzero;fill:rgb(87.843138%,87.843138%,87.843138%);fill-opacity:0.392157;" d="M 5.292969 29.355469 L 26.460938 29.355469 C 27.921875 29.355469 29.105469 28.171875 29.105469 26.710938 L 29.105469 5.542969 C 29.105469 4.082031 27.921875 2.894531 26.460938 2.894531 L 5.292969 2.894531 C 3.832031 2.894531 2.644531 4.082031 2.644531 5.542969 L 2.644531 26.710938 C 2.644531 28.171875 3.832031 29.355469 5.292969 29.355469 Z M 5.292969 29.355469 "/>
     <defs>
  <style id="current-color-scheme" type="text/css">
   .ColorScheme-Text { color:#eeeeee; } .ColorScheme-Highlight { color:#424242; }
  </style>
 </defs>
<path style="fill:currentColor" class="ColorScheme-Text" d="M 2.644531 16.789062 L 29.105469 16.789062 L 29.105469 15.464844 L 2.644531 15.464844 Z M 2.644531 16.789062 "/>
     <defs>
  <style id="current-color-scheme" type="text/css">
   .ColorScheme-Text { color:#eeeeee; } .ColorScheme-Highlight { color:#424242; }
  </style>
 </defs>
<path style="fill:currentColor" class="ColorScheme-Text" d="M 16.613281 29.355469 L 16.613281 2.894531 L 15.214844 2.894531 L 15.214844 29.355469 Z M 16.613281 29.355469 "/>
<path style=" stroke:none;fill-rule:nonzero;fill:rgb(49.411765%,34.117648%,76.078433%);fill-opacity:1;" d="M 2.644531 5.542969 C 2.644531 4.078125 3.828125 2.894531 5.292969 2.894531 L 26.460938 2.894531 C 27.925781 2.894531 29.105469 4.078125 29.105469 5.542969 Z M 2.644531 5.542969 "/>
</g>
</svg>
